X:1
T:The Miller's Daughters
M:4/4
L:1/4
K:G
 B A B/2B/2 A/2A/2| B d e2| g f e d| e2 z2| d e g/2g/2 e/2e/2| d e g d|\
 e d B/2G/2 G| A B E2| G G G G| G g e3/2 d/2| d3/2 e/2 B A| G4|
